!!!!SEGMENT: pl-kk--kk-i-382--067_anonim--offertorium-nro-8.krn
!!!cenid: 18xx:1569
!!!COM: Anonim
!!!COM-rismID: pe30004985
!!!CDT:
!!!CNT:
!!!OTL: Offertorium Nro 8
!!!PDT:
!!!AGN: Sacred
!!!SMS-siglum: PL-Kk
!!!SMS-shelfmark: Kk.I.382
!!!SMS-shelfwork: 053 W
!!!SMS-variant:
!!!SMS-altvar:
!!!NIFC-rismSourceID: 1001141101
!!!NIFC-islandoraID: pl-kk:6162
!!!URL-pdf-islandora: https://repozytorium.nifc.pl/islandora/object/pl-kk%3A6162/datastream/PDF/view
!!!URL-scan: https://polish.musicsources.pl/pl/lokalizacje/galeria/rekopisy/5994 @EN{Scan on Polish Music Sources Website} @PL{Skany w portalu Dziedzictwo Muzyki Polskiej w otwartym dostępie}
!!!ONB-nifc: UWAGA: obsada: S/T1, A/B1, T2, B2. Skany 0043-0044, 0188, 0115-0116, 0265
!!!AIN: 1 alto 1 bass 2 tenor
!!!key:
**kern	**text	**kern	**text	**kern	**text	**kern	**text
*part4	*part4	*part3	*part3	*part2	*part2	*part1	*part1
*staff4	*staff4	*staff3	*staff3	*staff2	*staff2	*staff1	*staff1
*Ibass	*	*Itenor	*	*Ialto	*	*Itenor	*
*I"Basso II	*	*I"Tenore II	*	*I"Alto vel Basso I	*	*I"Soprano vel Tenore I	*
*I'B 2	*	*I'T 2	*	*I'B 1	*	*I'T 1	*
*clefF4	*	*clefC4	*	*clefC3	*	*clefC1	*
*k[]	*	*k[]	*	*k[]	*	*k[]	*
*C:	*	*C:	*	*C:	*	*C:	*
*M3/2	*	*M3/2	*	*M3/2	*	*M3/4	*
=1	=1	=1	=1	=1	=1	=1	=1
*all\right	*	*all\right	*	*all\right	*	*all\right	*
*	*	*	*	*	*	*2\right	*
*	*	*	*	*	*	*rscale:1/2	*
!LO:TX:a:t=Omni Die.\n Nro 8.	!	!LO:TX:a:t=Nro 8.	!	!LO:TX:a:t=Nro 8.	!	!LO:TX:a:t=Nro. 8\n in C.	!
1C	Om-	1c	Om-	1g	Om-	1cc	Om-
*2\right	*	*2\right	*	*2\right	*	*	*
2E\	-ni	2c\	-ni	2g\	-ni	2cc\	-ni
=2	=2	=2	=2	=2	=2	=2	=2
1F	di-	(2.c\	di-	1a	di-	1cc	di-
.	.	4d\)	.	.	.	.	.
2E\	-e	2e\	-e	2g\	-e	2cc\	-e
=3	=3	=3	=3	=3	=3	=3	=3
1D	dic	1f	dic	1g	dic	1cc	dic
2G\	Ma-	2d\	Ma-	2g\	Ma-	2b\	Ma-
=4	=4	=4	=4	=4	=4	=4	=4
1E	-ri-	1e	-ri-	1g	-ri-	1cc	-ri-
2C/	-e	2e\	-e	2g\	-e	2cc\	-e
=5	=5	=5	=5	=5	=5	=5	=5
1G	me-	1d	me-	1g	me-	1b	me-
2F#X\	-a	2A\	-a	2a\	-a	2a\	-a
=6	=6	=6	=6	=6	=6	=6	=6
1G	lau-	1d	lau-	1g	lau-	1b	lau-
2C/	-des	2c\	-des	2e\	-des	2a\	-des
!	!	!	!	!LO:LB:g=original	!	!	!
=7	=7	=7	=7	=7	=7	=7	=7
1D	a-	(2A\	a-	1d	a-	1a	a-
.	.	2.d\)	.	.	.	.	.
2D\	-ni-	.	.	2d\	-ni-	2a\	-ni-
.	.	4c\	-ni-	.	.	.	.
!	!	!	!	!	!	!LO:LB:g=original	!
=8	=8	=8	=8	=8	=8	=8	=8
1.GG	-ma	1.B	-ma	1.d	-ma	1.g	-ma
!LO:LB:g=original	!	!LO:LB:g=original	!	!	!	!	!
=9	=9	=9	=9	=9	=9	=9	=9
1E	e-	1B	e-	1e	e-	1g#X	e-
2E\	-ius	2B\	-jus	2e\	-ius	2g#\	-ius
=10	=10	=10	=10	=10	=10	=10	=10
1A	fes-	1c	fes-	1e	fes-	1a	fes-
2A\	-ta	2c\	-ta	2e\	-ta	2a\	-ta
=11	=11	=11	=11	=11	=11	=11	=11
1D	e-	1A	e-	1f#X	e-	1a	e-
2D\	-ius	2A\	-jus	2f#\	-ius	2dd\	-jus
=12	=12	=12	=12	=12	=12	=12	=12
1G	ges-	1B	ges-	1g	ges-	1dd	ges-
2G\	-ta	2B\	-ta	2g\	-ta	2dd\	-ta
=13	=13	=13	=13	=13	=13	=13	=13
1C	co-	1e	col-	1g	col-	1cc	col-
2C/	-le	2e\	-le	2e\	-le	2cc\	-le
=14	=14	=14	=14	=14	=14	=14	=14
(2.F\	de-	1f	de-	1a	de-	1.cc	de-
4G\)	.	.	.	.	.	.	.
2A\	-vo-	2e\	-vo-	2e\	-vo-	.	.
!	!	!	!	!LO:LB:g=original	!	!LO:LB:g=original	!
=15	=15	=15	=15	=15	=15	=15	=15
(2F\	-ti-	(2f\	-tis-	(2a\	-ti-	2cc\	-vo-
2G\)	.	2.d\)	.	2g\)	.	2cc\	-tis-
2GG/	-si-	.	.	2f\	-si-	2b\	-si-
.	.	4d\	-si-	.	.	.	.
=16	=16	=16	=16	=16	=16	=16	=16
!	!	!	!	!	!	!LO:TX:b:t=V&colon;S&colon;	!
1.C	-ma	1.c	-ma.	1.e	-ma.	1.cc	-ma.
*	*	*	*	*	*	*rscale:1	*
!LO:LB:g=original	!	!LO:LB:g=original	!	!	!	!LO:PB:g=original	!
=17|!	=17|!	=17|!	=17|!	=17|!	=17|!	=17|!	=17|!
*M4/4	*	*M4/4	*	*M4/4	*	*M4/4	*
*met(C.)	*	*met(C.)	*	*met(C.)	*	*met(C.)	*
4F\	Con-	4c\	Con-	4f\	Con-	4a\	Con-
4F\	-tem-	4c\	-tem-	4a\	-tem-	4a\	-tem-
4E\	-pla-	4c\	-pla-	4g\	-pla-	4cc\	-pla-
4C/	-re	4c\	-re	4e\	-re	4cc\	-re
=18	=18	=18	=18	=18	=18	=18	=18
4c\	et	4e\	et	4g\	et	4cc\	et
4c\	mi-	4e\	mi-	4g\	mi-	4ee\	mi-
4A\	-ra-	4c\	-ra-	4a\	-ra-	4ff\	-ra-
4F\	-re	4c\	-re	4a\	-re	4ff\	-re
=19	=19	=19	=19	=19	=19	=19	=19
4B-X\	e-	4d\	e-	4f\	e-	4dd\	e-
4G\	-ius	4d\	-jus	4b-X\	-ius	4dd\	-jus
4c\	cel-	4e\	cel-	4g\	cel-	4cc\	cel-
4F\	-si-	4f\	-si-	4f\	-si-	4cc\	-si-
!	!	!	!	!LO:LB:g=original	!	!	!
=20	=20	=20	=20	=20	=20	=20	=20
4.C/	-tu-	4f\	-tu-	4.g\	-tu-	4cc\	-tu-
.	.	4e\	-di-	.	.	4cc\	-di-
8C/	-di-	.	.	8g\	-di-	.	.
2F\	-nem	2f\	-nem	2a\	-nem	2cc\	-nem
!	!	!	!	!	!	!LO:LB:g=original	!
=21	=21	=21	=21	=21	=21	=21	=21
4D\	dic	4A\	dic	4f\	dic	4dd\	dic
4AA/	fe-	4A\	fe-	4e\	fe-	4cc#X\	fe-
4D\	-li-	4A\	-li-	4f\	-li-	4dd\	-li-
4D\	-cem	4A\	-cem	4f\	-cem	4dd\	-cem
!LO:LB:g=original	!	!LO:LB:g=original	!	!	!	!	!
=22	=22	=22	=22	=22	=22	=22	=22
!	!	!LO:SIC:v:s=4c#:t=# dopisany ołówkiem	!	!	!	!	!
4A\	ge-	4c\	ge-	4e\	ge-	4cc#X\	ge-
4E\	-ni-	4B\	-ni-	4e\	-ni-	4ee\	-ni-
!	!	!LO:SIC:v:s=4c#	!	!	!	!	!
4A\	-tri-	4c\	-tri-	4e\	-tri-	4cc#\	-tri-
!	!	!LO:SIC:v:s=4c#	!	!	!	!	!
4A\	-cem	4c\	-cem	4e\	-cem	4a\	-cem
=23	=23	=23	=23	=23	=23	=23	=23
!	!	!LO:TX:a:t=P:problem=kasownik dopisany ołówkiem	!	!	!	!	!
4F\	dic	4c\	dic	4f\	dic	4a\	dic
4A\	be-	4c\	be-	4f\	be-	4ccn\	be-
4B-X\	-a-	4d\	-a-	4f\	-a-	4b-X\	-a-
4F\	-tam	4c\	-tam	4f\	-tam	4a\	-tam
!	!	!	!	!LO:LB:g=original	!	!	!
=24	=24	=24	=24	=24	=24	=24	=24
4.c\	vir-	4.c\	vir-	4.f\	vir-	4.cc\	vir-
8C/	-gi-	8c\	-gi-	8e\	-gi-	8b-X\	-gi-
2F\	-nem	2c\	-nem	2f\	-nem	2a\	-nem
!	!	!	!	!	!	!LO:LB:g=original	!
=25	=25	=25	=25	=25	=25	=25	=25
4C/	dic	4e\	dic	4g\	dic	4cc\	dic
4E\	be-	4c\	be-	4g\	be-	4g\	be-
4F\	-a-	4f\	-a-	4f\	-a-	4a\	-a-
4C/	-tam	4e\	-tam	4g\	-tam	4cc\	-tam
=26	=26	=26	=26	=26	=26	=26	=26
4.G\	vir-	4.d\	vir-	4.g\	vir-	4cc\	vir-
.	.	.	.	.	.	4bn\	gi-
8GG/	-gi-	8d\	-gi-	8g\	-gi-	.	.
!	!	!	!	!LO:TX:b:t=V&colon;S&colon;	!	!	!
2C/	-nem.	2e\	-nem.	2g\	-nem.	2cc\	-nem
!LO:LB:g=original	!	!LO:LB:g=original	!	!LO:PB:g=original	!	!	!
=27|!	=27|!	=27|!	=27|!	=27|!	=27|!	=27|!	=27|!
*M3/2	*	*M3/2	*	*M3/2	*	*M3/4	*
*	*	*	*	*	*	*rscale:1/2	*
1C	I-	1c	I-	1g	I-	1cc	I-
2E\	-psam	2c\	-psam	2g\	-psam	2cc\	-psam
=28	=28	=28	=28	=28	=28	=28	=28
1F	col-	(2.c\	col-	1a	col-	1cc	col-
.	.	4d\)	.	.	.	.	.
2E\	-le	2e\	-le	2g\	-le	2cc\	-le
=29	=29	=29	=29	=29	=29	=29	=29
1D	ut	1f	ut	1g	ut	1cc	ut
2G\	de	2d\	de	2g\	de	2b\	de
!	!	!	!	!	!	!LO:LB:g=original	!
=30	=30	=30	=30	=30	=30	=30	=30
1E	mo-	1e	mo-	1g	mo-	1cc	mo-
2C/	-le	2e\	-le	2g\	-le	2cc\	-le
=31	=31	=31	=31	=31	=31	=31	=31
1G	cri-	1d	cri-	1g	cri-	1b	cri-
2F#X\	-mi-	2A\	-mi-	2a\	-mi-	2a\	-mi-
=32	=32	=32	=32	=32	=32	=32	=32
1G	-num	1d	-num	1g	-num	1b	-num
2C/	te	2c\	te	2e\	te	2a\	te
=33	=33	=33	=33	=33	=33	=33	=33
1D	li-	(2A\	li-	1d	li-	1a	li-
.	.	2.d\)	.	.	.	.	.
2D/	-be-	.	.	2d\	-be-	2a\	-be-
.	.	4c\	-be-	.	.	.	.
=34	=34	=34	=34	=34	=34	=34	=34
!	!	!LO:TX:b:t=V&colon;S&colon;	!	!	!	!	!
1.GG	-ret	1.B	-ret,	1.d	-ret	1.g	-ret
!LO:LB:g=original	!	!LO:PB:g=original	!	!LO:LB:g=original	!	!	!
=35	=35	=35	=35	=35	=35	=35	=35
1E	hanc	1B	hanc	1e	hanc	1g#X	hanc
2E\	a-	2B\	a-	2e\	a-	2g#\	a-
=36	=36	=36	=36	=36	=36	=36	=36
1A	-pel-	1c	-pel-	1e	-pel-	1a	-pel-
2A\	-la	2c\	-la	2e\	-la	2a\	-la
=37	=37	=37	=37	=37	=37	=37	=37
1D	ne	1A	ne	1f#X	ne	1a	ne
2D\	pro-	2A\	pro-	2f#\	pro-	2dd\	pro-
!	!	!	!	!	!	!LO:LB:g=original	!
=38	=38	=38	=38	=38	=38	=38	=38
1G	-cel-	1B	-cel-	1g	-cel-	1dd	-cel-
2G\	-la	2B\	-la	2g\	-la	2dd\	-la
=39	=39	=39	=39	=39	=39	=39	=39
1C	vi-	1e	vi-	1g	vi-	1cc	vi-
2C/	-ti-	2e\	-ti-	2e\	-ti-	2cc\	-ti-
=40	=40	=40	=40	=40	=40	=40	=40
(2.F\	-o-	1f	-o-	1a	-o-	1.cc	-o-
4G\)	.	.	.	.	.	.	.
2A\	-rum	2e\	-rum	2e\	-rum	.	.
=41	=41	=41	=41	=41	=41	=41	=41
(2F\	su-	(2f\	su-	(2a\	su-	2cc\	rum
2G\)	.	2.d\)	.	2.g\)	.	2cc\	su-
2GG/	-pe-	.	.	.	.	2b\	-pe-
.	.	4d\	-pe-	4f\	-pe-	.	.
=42	=42	=42	=42	=42	=42	=42	=42
1.C	-ret	1.c	-ret.	1.e	-ret	1.cc	-ret
*	*	*	*	*	*	*rscale:1	*
!LO:LB:g=original	!	!	!	!LO:LB:g=original	!	!	!
=43|!	=43|!	=43|!	=43|!	=43|!	=43|!	=43|!	=43|!
*M4/4	*	*M4/4	*	*M4/4	*	*M4/4	*
*met(C.)	*	*met(C.)	*	*met(C.)	*	*met(C.)	*
4F\	hec	4c\	hec	4f\	hec	4a\	hec
4F\	per-	4c\	per-	4a\	per-	4a\	per-
4E\	-so-	4c\	-so-	4g\	-so-	4cc\	-so-
4C/	-na	4c\	-na	4e\	-na	4cc\	-na
!	!	!LO:LB:g=original	!	!	!	!LO:LB:g=original	!
=44	=44	=44	=44	=44	=44	=44	=44
4c\	no-	4e\	no-	4g\	no-	4cc\	no-
4c\	-bis	4e\	-bis	4g\	-bis	4ee\	-bis
4A\	do-	4c\	do-	4a\	do-	4ff\	do-
4F\	-na	4c\	-na	4a\	-na	4ff\	-na
=45	=45	=45	=45	=45	=45	=45	=45
4B-X\	con-	4d\	con-	4f\	con-	4dd\	con-
4G\	-tu-	4d\	-tu-	4b-X\	-tu-	4dd\	-tu-
4c\	-lit	4e\	-lit	4g\	-lit	4cc\	-lit
4F\	ce-	4f\	ce-	4f\	ce-	4cc\	ce-
=46	=46	=46	=46	=46	=46	=46	=46
4.C/	-les-	4f\	-les-	4.g\	-les-	4cc\	-les-
.	.	4e\	-ti-	.	.	4cc\	ti-
8C/	-ti-	.	.	8g\	-ti-	.	.
2F\	-a	2f\	-a	2a\	-a	2cc\	-a
!	!	!	!	!LO:LB:g=original	!	!	!
=47	=47	=47	=47	=47	=47	=47	=47
4D\	hec	4A\	hec	4f\	hec	4dd\	hec
4AA/	re-	4A\	re-	4e\	re-	4cc#X\	re-
4D\	-gi-	4A\	-gi-	4f\	-gi-	4dd\	-gi-
4D\	-na	4A\	-na	4f\	-na	4dd\	-na
!LO:LB:g=original	!	!	!	!	!	!LO:LB:g=original	!
=48	=48	=48	=48	=48	=48	=48	=48
4A\	nos	4c\	nos	4e\	nos	4cc#X\	nos
4E\	di-	4B\	di-	4e\	di-	4ee\	di-
4A\	-vi-	4c\	-vi-	4e\	-vi-	4cc#\	-vi-
4A\	-na	4c\	-na	4e\	-na	4a\	-na
=49	=49	=49	=49	=49	=49	=49	=49
4F\	il-	4c\	il-	4f\	il-	4a\	il-
4A\	-lus-	4c\	-lus-	4f\	-lus-	4ccn\	-lus-
4B-X\	-tra-	4d\	-tra-	4f\	-tra-	4b-X\	-tra-
4F\	-vit	4c\	-vit	4f\	-vit	4a\	-vit
!	!	!LO:LB:g=original	!	!	!	!	!
=50	=50	=50	=50	=50	=50	=50	=50
4.c\	gra-	4.c\	gra-	4.f\	gra-	4cc\	gra-
.	.	.	.	.	.	4b-X\	ti-
8C/	-ti-	8c\	-ti-	8e\	-ti-	.	.
2F\	-a	2c\	-a	2f\	-a	2a\	-a
!	!	!	!	!LO:LB:g=original	!	!	!
=51	=51	=51	=51	=51	=51	=51	=51
4C/	il-	4e\	il-	4g\	il-	4cc\	il-
4E\	-lu-	4c\	-lu-	4g\	-lu-	4g\	-lu-
4F\	-stra-	4f\	-stra-	4f\	-stra-	4a\	-stra-
4C/	-vit	4e\	-vit	4g\	-vit	4cc\	-vit
!	!	!	!	!	!	!LO:LB:g=original	!
=52	=52	=52	=52	=52	=52	=52	=52
4.G\	gra-	4.d\	gra-	4.g\	gra-	4cc\	gra-
.	.	.	.	.	.	4bn\	ti-
8GG/	-ti-	8d\	-ti-	8g\	-ti-	.	.
!	!	!	!	!LO:SIC:v:s=2e	!	!	!
2C/	-a.	2e\	-a.	2f\	-a.	2cc\	-a.
==	==	==	==	==	==	==	==
*-	*-	*-	*-	*-	*-	*-	*-
!!!system-decoration: [(s1,s2,s3,s4)]
!!!ENC: Marta Lawrence
!!!END: 2021-02-12
!!!ENC: Tomasz Grochalski
!!!END: 2021-02-03
!!!YEC: Copyright 2022 Narodowy Instytut Fryderyka Chopina (https://polishscores.org)
!!!YEM: Licence CC BY 4.0 (https://creativecommons.org/licenses/by/4.0)
